images_elementary_svg/cmd/lc_insertrowsafter.svg

<svg height="24" viewBox="0 0 6.3499999 6.3500002" width="24" xmlns="http://www.w3.org/2000/svg" xmlns:xlink="http://www.w3.org/1999/xlink"><linearGradient id="a" gradientTransform="matrix(.11794328 0 0 .11904573 -6.13793 290.6435)" gradientUnits="userSpaceOnUse" x1="25.121649" x2="25.132275" y1="-10.13522" y2="48.395687"><stop offset="0" stop-color="#fafafa"/><stop offset="1" stop-color="#e2e1de"/></linearGradient><linearGradient id="b" gradientTransform="matrix(-.12827954 0 0 .13945134 6.393749 290.54409)" gradientUnits="userSpaceOnUse" x1="23.99999" x2="23.99999" y1="4.999989" y2="43"><stop offset="0" stop-color="#fff"/><stop offset=".06316455" stop-color="#fff" stop-opacity=".235294"/><stop offset=".95056331" stop-color="#fff" stop-opacity=".156863"/><stop offset="1" stop-color="#fff" stop-opacity=".392157"/></linearGradient><linearGradient id="c" gradientTransform="matrix(0 -.14213467 -.15261621 0 13.228423 298.02276)" gradientUnits="userSpaceOnUse" x1="30.431822" x2="30.547735" y1="48.736038" y2="67.232704"><stop offset="0" stop-color="#fff"/><stop offset=".02573186" stop-color="#fff" stop-opacity=".235294"/><stop offset=".76580906" stop-color="#fff" stop-opacity=".156863"/><stop offset="1" stop-color="#fff" stop-opacity=".392157"/></linearGradient><linearGradient id="d" gradientTransform="matrix(-.12612362 0 0 .1174283 7.657872 291.56054)" gradientUnits="userSpaceOnUse" x1="12.062805" x2="40.897236" y1="18.068302" y2="18.152815"><stop offset="0" stop-color="#f0c1ff"/><stop offset=".26238" stop-color="#c5a3f2"/><stop offset=".704952" stop-color="#7a36b1"/><stop offset="1" stop-color="#4c2d81"/></linearGradient><radialGradient id="e" cx="24.837126" cy="36.421127" gradientTransform="matrix(-.07302009 0 0 -.07827208 6.435672 297.21673)" gradientUnits="userSpaceOnUse" r="15.644737"><stop offset="0"/><stop offset="1" stop-opacity="0"/></radialGradient><g transform="translate(0 -290.64999)"><rect fill="url(#a)" height="5.291667" rx=".139641" ry=".146991" stroke-width=".264583" transform="scale(-1 1)" width="5.027083" x="-5.820833" y="291.17911"/><path d="m5.6882109 291.31108h-4.74634295v5.1597h4.74634295z" fill="none" stroke="url(#b)" stroke-linecap="round" stroke-linejoin="round" stroke-width=".2911"/><g stroke-width=".264583"><path d="m1.8520828 294.35411h-1.05833336v.26458h1.05833336z" opacity=".321"/><path d="m5.820833 295.41244h-1.0583333v.26459h1.0583333z" opacity=".321"/><path d="m4.4979164 295.41244h-1.0583334v.26459h1.0583334z" opacity=".321"/><path d="m1.8520828 295.41244h-1.05833336v.26459h1.05833336z" opacity=".321"/><path d="m4.7625 291.17916v1.05833h1.0583333v.26458h-1.0583333v.79375h1.0583333v.26459h-1.0583333v.79375h1.0583333v.26458h-1.0583333v1.85208h-.2645834v-1.85208h-1.0583333v1.85208h-.2645833v-.79375h-1.0583334v.79375h-.2645833v-2.91041h-1.05833333v-.26459h1.05833333v-.79375h-1.05833333v-.26458h1.05833333v-1.05833h.2645833v1.05833h1.0583334v-1.05833h.2645833v1.05833h1.0583333v-1.05833zm-.2645834 1.32291h-1.0583333v.79375h1.0583333zm-1.3229166 0h-1.0583334v.79375h1.0583334zm1.3229166 1.05834h-1.0583333v.79375h1.0583333zm-1.3229166 0h-1.0583334v.79375h1.0583334zm0 1.05833h-1.0583334v.79375h1.0583334z" opacity=".321"/><path d="m.52916663 294.35416h5.55624997v1.32291h-5.55624997z" fill="#8ed440"/><path d="m5.7055948 290.91354c.1114555 0 .2147054.0487.2811198.12557.066414.0769.098702.17696.098702.28061v2.50527 2.50372c0 .10365-.032288.20376-.098702.28061-.066414.0768-.1696643.12609-.2811198.12609h-4.74286287c-.22291066 0-.4335653-.16819-.4335653-.4067v-2.50372-2.50527c0-.23851.21065464-.40618.4335653-.40618zm0 .26458h-4.74286287c-.0809083 0-.16898196.0763-.16898196.1416v2.50527 2.50372c0 .0653.0880737.14211.16898196.14211h4.74286287c.040454 0 .061358-.0118.080615-.0341s.034623-.0597.034623-.10801v-2.50372-2.50527c0-.0483-.015367-.0852-.034623-.10749-.019256-.0223-.040161-.0341-.080615-.0341z" opacity=".3"/></g><g transform="matrix(0 .26458333 -.26458333 0 5.291667 290.12082)"><path d="m16-4.0000003c-.554 0-1 .446-1 1v21.0000003c0 .554.446 1 1 1h5c.554 0 1-.446 1-1v-21c0-.554-.446-1-1-1zm0 1 5 .0000003v21h-5z" fill="#126400" fill-opacity=".570588"/><g fill="#c0e98e"><path d="m16 7v1h5v-1zm0 5v1h5v-1z" opacity=".5"/><path d="m16 2v1l5 .0000003v-1z" opacity=".5"/></g></g><g transform="matrix(0 -1 1 0 -289.06219 296.99999)"><path d="m3.4796824 294.36597a1.1423801 1.2245473 0 1 1 2.2847603 0 1.1423802 1.2245469 0 0 1 -2.2847603 0z" fill="url(#e)" fill-rule="evenodd" opacity=".141176" stroke-width=".264583"/><path d="m4.6302082 295.20654-1.8520833-1.50099 1.8520833-1.50707v.96505h1.5875001v1.05833h-1.5875001z" display="block" fill="url(#d)" stroke-width=".264583"/><g fill="none"><path d="m4.3656249 294.64821-1.1733183-.94266 1.1733183-.95855v.68111h1.5875001v.52917h-1.5875001z" display="block" opacity=".401" stroke="url(#c)" stroke-miterlimit="7" stroke-width=".255039"/><path d="m4.6302082 295.20654-1.8520833-1.50099 1.8520833-1.50707v.96505h1.5875001v1.05833h-1.5875001z" opacity=".5" stroke="#6326b9" stroke-linejoin="round" stroke-width=".264583"/></g></g></g></svg>

<?xml version="1.0" encoding="UTF-8" standalone="no"?>
<!-- Created with Inkscape (http://www.inkscape.org/) -->

<svg
   xmlns:dc="http://purl.org/dc/elements/1.1/"
   xmlns:cc="http://creativecommons.org/ns#"
   xmlns:rdf="http://www.w3.org/1999/02/22-rdf-syntax-ns#"
   xmlns:svg="http://www.w3.org/2000/svg"
   xmlns="http://www.w3.org/2000/svg"
   xmlns:sodipodi="http://sodipodi.sourceforge.net/DTD/sodipodi-0.dtd"
   xmlns:inkscape="http://www.inkscape.org/namespaces/inkscape"
   width="24"
   height="24"
   viewBox="0 0 6.3499999 6.3500002"
   version="1.1"
   id="svg887"
   inkscape:version="0.92.3 (unknown)"
   sodipodi:docname="lc_insertrowsafter.svg">
  <defs
     id="defs881">
    <linearGradient
       id="c"
       gradientTransform="matrix(0.11794328,0,0,0.11904573,-6.1379297,290.6435)"
       gradientUnits="userSpaceOnUse"
       x1="25.121649"
       x2="25.132275"
       y1="-10.13522"
       y2="48.395687">
      <stop
         offset="0"
         stop-color="#fafafa"
         id="stop20" />
      <stop
         offset="1"
         stop-color="#e2e1de"
         id="stop22" />
    </linearGradient>
    <linearGradient
       id="d"
       gradientTransform="matrix(-0.12827954,0,0,0.13945134,6.3937493,290.54409)"
       gradientUnits="userSpaceOnUse"
       x1="23.99999"
       x2="23.99999"
       y1="4.999989"
       y2="43">
      <stop
         offset="0"
         stop-color="#fff"
         id="stop25" />
      <stop
         offset=".06316455"
         stop-color="#fff"
         stop-opacity=".235294"
         id="stop27" />
      <stop
         offset=".95056331"
         stop-color="#fff"
         stop-opacity=".156863"
         id="stop29" />
      <stop
         offset="1"
         stop-color="#fff"
         stop-opacity=".392157"
         id="stop31" />
    </linearGradient>
    <linearGradient
       id="a"
       gradientTransform="matrix(0,-0.14213467,-0.15261621,0,13.228423,298.02276)"
       gradientUnits="userSpaceOnUse"
       x1="30.431822"
       x2="30.547735"
       y1="48.736038"
       y2="67.232704">
      <stop
         offset="0"
         stop-color="#fff"
         id="stop1885" />
      <stop
         offset="0.02573186"
         stop-color="#fff"
         stop-opacity=".235294"
         id="stop1887" />
      <stop
         offset="0.76580906"
         stop-color="#fff"
         stop-opacity=".156863"
         id="stop1889" />
      <stop
         offset="1"
         stop-color="#fff"
         stop-opacity=".392157"
         id="stop1891" />
    </linearGradient>
    <linearGradient
       id="b"
       gradientTransform="matrix(-0.12612362,0,0,0.1174283,7.6578724,291.56054)"
       gradientUnits="userSpaceOnUse"
       x1="12.062805"
       x2="40.897236"
       y1="18.068302"
       y2="18.152815">
      <stop
         offset="0"
         stop-color="#f0c1ff"
         id="stop1894" />
      <stop
         offset=".26238"
         stop-color="#c5a3f2"
         id="stop1896" />
      <stop
         offset=".704952"
         stop-color="#7a36b1"
         id="stop1898" />
      <stop
         offset="1"
         stop-color="#4c2d81"
         id="stop1900" />
    </linearGradient>
    <radialGradient
       id="c-3"
       cx="24.837126"
       cy="36.421127"
       gradientTransform="matrix(-0.07302009,0,0,-0.07827208,6.4356715,297.21673)"
       gradientUnits="userSpaceOnUse"
       r="15.644737">
      <stop
         offset="0"
         id="stop1903" />
      <stop
         offset="1"
         stop-opacity="0"
         id="stop1905" />
    </radialGradient>
  </defs>
  <sodipodi:namedview
     id="base"
     pagecolor="#ffffff"
     bordercolor="#666666"
     borderopacity="1.0"
     inkscape:pageopacity="0.0"
     inkscape:pageshadow="2"
     inkscape:zoom="5.6568543"
     inkscape:cx="17.289395"
     inkscape:cy="29.726354"
     inkscape:document-units="mm"
     inkscape:current-layer="layer1"
     showgrid="true"
     units="px"
     inkscape:snap-global="false"
     inkscape:window-width="1366"
     inkscape:window-height="706"
     inkscape:window-x="0"
     inkscape:window-y="0"
     inkscape:window-maximized="1">
    <inkscape:grid
       type="xygrid"
       id="grid1522" />
  </sodipodi:namedview>
  <metadata
     id="metadata884">
    <rdf:RDF>
      <cc:Work
         rdf:about="">
        <dc:format>image/svg+xml</dc:format>
        <dc:type
           rdf:resource="http://purl.org/dc/dcmitype/StillImage" />
        <dc:title></dc:title>
      </cc:Work>
    </rdf:RDF>
  </metadata>
  <g
     inkscape:label="Layer 1"
     inkscape:groupmode="layer"
     id="layer1"
     transform="translate(0,-290.64999)">
    <g
       id="g1520">
      <rect
         id="rect34"
         y="291.17911"
         x="-5.8208332"
         width="5.0270834"
         transform="scale(-1,1)"
         ry="0.14699087"
         rx="0.13964127"
         height="5.2916665"
         style="fill:url(#c);stroke-width:0.26458332" />
      <path
         id="path36"
         d="M 5.6882109,291.31108 H 0.94186795 v 5.1597 H 5.6882109 Z"
         style="fill:none;stroke:url(#d);stroke-width:0.29110041;stroke-linecap:round;stroke-linejoin:round"
         inkscape:connector-curvature="0" />
      <path
         id="path38"
         d="M 1.8520828,294.35411 H 0.79374944 v 0.26458 H 1.8520828 Z"
         style="opacity:0.32100004;stroke-width:0.26458332"
         inkscape:connector-curvature="0" />
      <path
         id="path40"
         d="M 5.820833,295.41244 H 4.7624997 v 0.26459 H 5.820833 Z"
         style="opacity:0.32100004;stroke-width:0.26458332"
         inkscape:connector-curvature="0" />
      <path
         id="path42"
         d="M 4.4979164,295.41244 H 3.439583 v 0.26459 h 1.0583334 z"
         style="opacity:0.32100004;stroke-width:0.26458332"
         inkscape:connector-curvature="0" />
      <path
         id="path44"
         d="M 1.8520828,295.41244 H 0.79374944 v 0.26459 H 1.8520828 Z"
         style="opacity:0.32100004;stroke-width:0.26458332"
         inkscape:connector-curvature="0" />
      <path
         id="path46"
         d="m 4.7625,291.17916 v 1.05833 h 1.0583333 v 0.26458 H 4.7625 v 0.79375 h 1.0583333 v 0.26459 H 4.7625 v 0.79375 h 1.0583333 v 0.26458 H 4.7625 v 1.85208 H 4.4979166 v -1.85208 H 3.4395833 v 1.85208 H 3.175 v -0.79375 H 2.1166666 v 0.79375 H 1.8520833 v -2.91041 H 0.79374997 v -0.26459 H 1.8520833 v -0.79375 H 0.79374997 v -0.26458 H 1.8520833 v -1.05833 h 0.2645833 v 1.05833 H 3.175 v -1.05833 h 0.2645833 v 1.05833 h 1.0583333 v -1.05833 z m -0.2645834,1.32291 H 3.4395833 v 0.79375 h 1.0583333 z m -1.3229166,0 H 2.1166666 v 0.79375 H 3.175 Z m 1.3229166,1.05834 H 3.4395833 v 0.79375 h 1.0583333 z m -1.3229166,0 H 2.1166666 v 0.79375 H 3.175 Z m 0,1.05833 H 2.1166666 v 0.79375 H 3.175 Z"
         style="opacity:0.32100004;stroke-width:0.26458332"
         inkscape:connector-curvature="0" />
      <path
         id="path48"
         d="M 0.52916663,294.35416 H 6.0854166 v 1.32291 H 0.52916663 Z"
         style="fill:#8ed440;stroke-width:0.26458332"
         inkscape:connector-curvature="0" />
      <path
         id="path50"
         d="m 5.7055948,290.91354 c 0.1114555,0 0.2147054,0.0487 0.2811198,0.12557 0.066414,0.0769 0.098702,0.17696 0.098702,0.28061 v 2.50527 2.50372 c 0,0.10365 -0.032288,0.20376 -0.098702,0.28061 -0.066414,0.0768 -0.1696643,0.12609 -0.2811198,0.12609 H 0.96273193 c -0.22291066,0 -0.4335653,-0.16819 -0.4335653,-0.4067 v -2.50372 -2.50527 c 0,-0.23851 0.21065464,-0.40618 0.4335653,-0.40618 z m 0,0.26458 H 0.96273193 c -0.0809083,0 -0.16898196,0.0763 -0.16898196,0.1416 v 2.50527 2.50372 c 0,0.0653 0.0880737,0.14211 0.16898196,0.14211 H 5.7055948 c 0.040454,0 0.061358,-0.0118 0.080615,-0.0341 0.019257,-0.0223 0.034623,-0.0597 0.034623,-0.10801 v -2.50372 -2.50527 c 0,-0.0483 -0.015367,-0.0852 -0.034623,-0.10749 -0.019256,-0.0223 -0.040161,-0.0341 -0.080615,-0.0341 z"
         style="opacity:0.3;stroke-width:0.26458332"
         inkscape:connector-curvature="0" />
      <g
         id="g66"
         transform="matrix(0,0.26458333,-0.26458333,0,5.2916666,290.12082)">
        <path
           id="path60"
           d="m 16,-4.0000003 c -0.554,0 -1,0.446 -1,1 V 18 c 0,0.554 0.446,1 1,1 h 5 c 0.554,0 1,-0.446 1,-1 V -3 c 0,-0.554 -0.446,-1 -1,-1 z m 0,1 5,3e-7 v 21 h -5 z"
           inkscape:connector-curvature="0"
           style="fill:#126400;fill-opacity:0.570588" />
        <path
           id="path62"
           d="m 16,7 v 1 h 5 V 7 Z m 0,5 v 1 h 5 v -1 z"
           inkscape:connector-curvature="0"
           style="opacity:0.5;fill:#c0e98e" />
        <path
           id="path64"
           d="m 16,2 v 1 l 5,3e-7 v -1 z"
           inkscape:connector-curvature="0"
           style="opacity:0.5;fill:#c0e98e" />
      </g>
    </g>
    <g
       id="g2626"
       transform="rotate(-90,3.9689003,293.03109)">
      <path
         id="path1986"
         d="m 3.4796824,294.36597 a 1.1423801,1.2245473 0 1 1 2.2847603,0 1.1423802,1.2245469 0 0 1 -2.2847603,0 z"
         style="opacity:0.14117599;fill:url(#c-3);fill-rule:evenodd;stroke-width:0.26458332"
         inkscape:connector-curvature="0" />
      <path
         id="path1988"
         display="block"
         d="m 4.6302082,295.20654 -1.8520833,-1.50099 1.8520833,-1.50707 v 0.96505 h 1.5875001 v 1.05833 H 4.6302082 Z"
         style="display:block;fill:url(#b);stroke-width:0.26458332"
         inkscape:connector-curvature="0" />
      <path
         id="path1990"
         style="display:block;opacity:0.40100002;fill:none;stroke:url(#a);stroke-width:0.2550385;stroke-miterlimit:7"
         d="M 4.3656249,294.64821 3.1923066,293.70555 4.3656249,292.747 v 0.68111 H 5.953125 v 0.52917 H 4.3656249 Z"
         inkscape:connector-curvature="0" />
      <path
         id="path1992"
         d="m 4.6302082,295.20654 -1.8520833,-1.50099 1.8520833,-1.50707 v 0.96505 h 1.5875001 v 1.05833 H 4.6302082 Z"
         style="opacity:0.5;fill:none;stroke:#6326b9;stroke-width:0.26458332;stroke-linejoin:round"
         inkscape:connector-curvature="0" />
    </g>
  </g>
</svg>
